images/lottery.svg

<svg width="122" height="122" viewBox="0 0 122 122" fill="none" xmlns="http://www.w3.org/2000/svg">
<g filter="url(#filter0_d_300_1418)">
<circle cx="61" cy="58" r="40" fill="white" fill-opacity="0.64" shape-rendering="crispEdges"/>
</g>
<g filter="url(#filter1_d_300_1418)">
<circle cx="61.0004" cy="58.0014" r="33.4545" fill="white"/>
</g>
<g clip-path="url(#clip0_300_1418)">
<path d="M45.1959 51.2515L45.5483 45.2306L50.4713 48.0347L52.7577 43.2949L57.0818 46.3312L60.9998 38.2812L64.4706 46.6371L69.584 43.2833L71.3469 48.4143L77.5245 46.9899L76.5634 52.3814L82.818 56.6712L77.2285 59.7421L77.6403 65.914L70.919 64.8736L71.8799 77.8829L65.1169 65.914L61.322 69.2303L57.5756 65.8263L51.5572 70.5651L48.1092 63.6733L40.9377 64.2458L43.9667 57.5947L39.1816 52.7441L45.1959 51.2515Z" fill="#FFC250"/>
<path d="M82.8183 56.6735L76.5637 52.3837L77.5247 46.9922L73.8622 47.8366L73.0518 52.3837L79.3063 56.6735L73.7168 59.7443L74.092 65.3669L77.6406 65.9162L77.2287 59.7443L82.8183 56.6735Z" fill="#EBB044"/>
<path d="M67.3564 64.3594L67.8404 70.7351L71.8805 77.8851L70.9195 64.8758L67.3564 64.3594Z" fill="#EBB044"/>
<path d="M59.492 53.1562C59.4888 53.1562 59.4856 53.1563 59.4824 53.1563C59.1187 53.1614 58.8282 53.4605 58.8334 53.8242L58.8822 57.238L56.243 53.4648C56.0779 53.2287 55.7785 53.1274 55.5041 53.2145C55.2296 53.3017 55.0437 53.5572 55.0449 53.8451L55.0701 59.2981C55.0718 59.6608 55.3662 59.9536 55.7285 59.9536H55.7315C56.0953 59.9518 56.3886 59.6557 56.387 59.292L56.3716 55.9463L58.8865 59.5417C59.0827 59.8215 59.4073 59.9389 59.7133 59.8417C60.0261 59.7423 60.2273 59.4473 60.2256 59.0839L60.1501 53.8051C60.1451 53.4448 59.8513 53.1562 59.492 53.1562Z" fill="white"/>
<path d="M53.3109 53.1875H53.3078C52.9441 53.1892 52.6507 53.4854 52.6524 53.849L52.6775 59.3122C52.6792 59.6749 52.9737 59.9677 53.3359 59.9677H53.3389C53.7027 59.966 53.996 59.6698 53.9944 59.3061L53.9693 53.843C53.9676 53.4803 53.6731 53.1875 53.3109 53.1875Z" fill="white"/>
<path d="M51.0404 56.1744C51.2467 55.8622 51.3567 55.4964 51.3549 55.1138V55.1137C51.3499 54.0605 50.4899 53.207 49.4357 53.207H49.4268L47.8352 53.2144C47.6605 53.2151 47.4933 53.2854 47.3704 53.4094C47.2474 53.5335 47.1789 53.7013 47.1797 53.8759L47.1913 56.3956V56.397L47.2049 59.339C47.2058 59.5141 47.2763 59.6817 47.401 59.8047C47.5243 59.9264 47.6904 59.9944 47.8635 59.9944H47.8694C47.8695 59.9944 49.3325 59.9812 49.736 59.9794C50.3054 59.9768 50.8399 59.7531 51.2409 59.3496C51.6424 58.9456 51.8622 58.4096 51.8595 57.8406C51.8564 57.1644 51.5361 56.5623 51.0404 56.1744ZM49.4328 54.524H49.4357C49.7664 54.524 50.0363 54.7908 50.0379 55.12C50.0386 55.2794 49.9769 55.4298 49.8641 55.5433C49.7508 55.6572 49.5996 55.7205 49.4383 55.7212C49.2617 55.7222 48.759 55.7264 48.5051 55.727L48.4997 54.5284L49.4328 54.524ZM50.3067 58.4212C50.1531 58.5758 49.9483 58.6614 49.7299 58.6624C49.5074 58.6635 48.9634 58.6678 48.5188 58.6717L48.5112 57.0384H49.7263C50.1747 57.0384 50.5404 57.4001 50.5424 57.8467C50.5435 58.0632 50.4598 58.2673 50.3067 58.4212Z" fill="white"/>
<path d="M66.6737 55.8494H66.6706L65.0315 55.8569C64.6678 55.8587 64.3744 56.1548 64.376 56.5185C64.3778 56.8812 64.6722 57.174 65.0344 57.174H65.0375L65.9476 57.1698C65.8736 57.5046 65.7401 57.7988 65.5547 58.0291C65.2556 58.4001 64.8397 58.5895 64.3182 58.5919H64.3084C63.1653 58.5919 62.2326 57.6682 62.2273 56.5285C62.2247 55.9751 62.4386 55.4536 62.8293 55.0604C63.2208 54.6667 63.7426 54.4484 64.2988 54.4458H64.3085C64.7224 54.4458 65.122 54.5663 65.4645 54.7948C65.767 54.9965 66.1759 54.9147 66.3776 54.6121C66.5793 54.3096 66.4975 53.9007 66.195 53.699C65.6309 53.323 64.9742 53.1293 64.2928 53.1289C63.3854 53.1331 62.5339 53.4893 61.8952 54.1322C61.2558 54.7755 60.9059 55.6287 60.9102 56.5346C60.9188 58.3986 62.4416 59.9092 64.3081 59.9091H64.324C65.2346 59.905 66.0358 59.5308 66.5799 58.8558C67.069 58.2489 67.3361 57.4141 67.3319 56.5053C67.3304 56.1422 67.036 55.8494 66.6737 55.8494Z" fill="white"/>
<path d="M71.4219 53.0938H71.4061C70.4987 53.0979 69.6472 53.4542 69.0084 54.097C68.3691 54.7403 68.0192 55.5935 68.0235 56.4993C68.0321 58.3634 69.5548 59.8739 71.4213 59.8739H71.4372C72.3445 59.8697 73.196 59.5135 73.8348 58.8706C74.4742 58.2273 74.824 57.3741 74.8198 56.4682C74.8111 54.6042 73.2884 53.0938 71.4219 53.0938ZM72.9007 57.9423C72.5092 58.3361 71.9875 58.5543 71.4312 58.5569H71.4214C70.2784 58.5569 69.3457 57.6332 69.3405 56.4934C69.3379 55.94 69.5518 55.4187 69.9425 55.0254C70.334 54.6316 70.8557 54.4134 71.412 54.4109H71.4218C72.5648 54.4109 73.4975 55.3345 73.5028 56.4743C73.5053 57.0276 73.2915 57.549 72.9007 57.9423Z" fill="white"/>
<path d="M46.8627 39.442C47.7101 39.442 47.7115 38.125 46.8627 38.125C46.0153 38.125 46.0138 39.442 46.8627 39.442Z" fill="#BEDDF3"/>
<path d="M55.7035 41.399C56.5509 41.399 56.5524 40.082 55.7035 40.082C54.8561 40.0821 54.8546 41.399 55.7035 41.399Z" fill="#E28086"/>
<path d="M41.597 48.7506C42.4445 48.7506 42.4459 47.4336 41.597 47.4336C40.7496 47.4337 40.7482 48.7506 41.597 48.7506Z" fill="#E28086"/>
<path d="M69.7376 40.0162C70.585 40.0162 70.5865 38.6992 69.7376 38.6992C68.8902 38.6992 68.8889 40.0162 69.7376 40.0162Z" fill="#FFC250"/>
<path d="M81.0638 51.4733C81.9113 51.4733 81.9127 50.1562 81.0638 50.1562C80.2164 50.1562 80.215 51.4733 81.0638 51.4733Z" fill="#BEDDF3"/>
<path d="M64.4701 71.7545C65.3175 71.7545 65.3189 70.4375 64.4701 70.4375C63.6226 70.4375 63.6213 71.7545 64.4701 71.7545Z" fill="#E28086"/>
<path d="M56.9642 74.9147C57.8116 74.9147 57.8131 73.5977 56.9642 73.5977C56.1168 73.5977 56.1154 74.9147 56.9642 74.9147Z" fill="#FFC250"/>
<path d="M45.6391 68.86C46.4865 68.86 46.4879 67.543 45.6391 67.543C44.7916 67.5431 44.7902 68.86 45.6391 68.86Z" fill="#BEDDF3"/>
</g>
<defs>
<filter id="filter0_d_300_1418" x="0.636364" y="0.545455" width="120.727" height="120.727" filterUnits="userSpaceOnUse" color-interpolation-filters="sRGB">
<feFlood flood-opacity="0" result="BackgroundImageFix"/>
<feColorMatrix in="SourceAlpha" type="matrix" values="0 0 0 0 0 0 0 0 0 0 0 0 0 0 0 0 0 0 127 0" result="hardAlpha"/>
<feOffset dy="2.90909"/>
<feGaussianBlur stdDeviation="10.1818"/>
<feComposite in2="hardAlpha" operator="out"/>
<feColorMatrix type="matrix" values="0 0 0 0 0.104167 0 0 0 0 0.066116 0 0 0 0 0.030816 0 0 0 0.06 0"/>
<feBlend mode="normal" in2="BackgroundImageFix" result="effect1_dropShadow_300_1418"/>
<feBlend mode="normal" in="SourceGraphic" in2="effect1_dropShadow_300_1418" result="shape"/>
</filter>
<filter id="filter1_d_300_1418" x="7.18226" y="7.09233" width="107.636" height="107.637" filterUnits="userSpaceOnUse" color-interpolation-filters="sRGB">
<feFlood flood-opacity="0" result="BackgroundImageFix"/>
<feColorMatrix in="SourceAlpha" type="matrix" values="0 0 0 0 0 0 0 0 0 0 0 0 0 0 0 0 0 0 127 0" result="hardAlpha"/>
<feOffset dy="2.90909"/>
<feGaussianBlur stdDeviation="10.1818"/>
<feComposite in2="hardAlpha" operator="out"/>
<feColorMatrix type="matrix" values="0 0 0 0 0.104167 0 0 0 0 0.066116 0 0 0 0 0.030816 0 0 0 0.06 0"/>
<feBlend mode="normal" in2="BackgroundImageFix" result="effect1_dropShadow_300_1418"/>
<feBlend mode="normal" in="SourceGraphic" in2="effect1_dropShadow_300_1418" result="shape"/>
</filter>
<clipPath id="clip0_300_1418">
<rect width="43.6364" height="43.6364" fill="white" transform="translate(39.1816 36.1836)"/>
</clipPath>
</defs>
</svg>

<svg xmlns="http://www.w3.org/2000/svg" width="122" height="122" fill="none"><g filter="url(#a)"><circle cx="61" cy="58" r="40" fill="#fff" fill-opacity=".64" shape-rendering="crispEdges"/></g><g filter="url(#b)"><circle cx="61" cy="58.001" r="33.455" fill="#fff"/></g><g clip-path="url(#c)"><path fill="#FFC250" d="m45.196 51.252.352-6.021 4.923 2.804 2.287-4.74 4.324 3.036L61 38.281l3.47 8.356 5.114-3.354 1.763 5.131 6.178-1.424-.962 5.391 6.255 4.29-5.59 3.071.412 6.172-6.721-1.04.96 13.009-6.762-11.969-3.795 3.316-3.746-3.404-6.019 4.74-3.448-6.893-7.171.573 3.029-6.651-4.785-4.85z"/><path fill="#EBB044" d="m82.818 56.674-6.254-4.29.96-5.392-3.662.845-.81 4.547 6.254 4.29-5.59 3.07.376 5.623 3.549.55-.412-6.173zM67.356 64.36l.484 6.375 4.04 7.15-.96-13.01z"/><path fill="#fff" d="M59.492 53.156h-.01a.66.66 0 0 0-.649.668l.05 3.414-2.64-3.773a.659.659 0 0 0-1.198.38l.025 5.453a.66.66 0 0 0 .658.656h.003a.66.66 0 0 0 .656-.662l-.015-3.346 2.514 3.596c.197.28.521.397.827.3.313-.1.514-.395.513-.758l-.076-5.279a.66.66 0 0 0-.658-.649M53.31 53.188h-.002a.66.66 0 0 0-.656.661l.026 5.463a.66.66 0 0 0 .658.656h.003a.66.66 0 0 0 .655-.662l-.025-5.463a.66.66 0 0 0-.658-.656M51.04 56.174a1.9 1.9 0 0 0 .315-1.06 1.92 1.92 0 0 0-1.92-1.907h-.008l-1.592.007a.66.66 0 0 0-.655.662l.011 2.52v.001l.014 2.942a.66.66 0 0 0 .659.655h.005s1.464-.013 1.867-.015a2.12 2.12 0 0 0 1.505-.63 2.125 2.125 0 0 0-.2-3.175m-1.607-1.65h.003c.33 0 .6.267.602.596a.6.6 0 0 1-.6.601l-.933.006-.005-1.199zm.874 3.897a.81.81 0 0 1-.577.241l-1.211.01-.008-1.634h1.215c.449 0 .814.362.816.809a.8.8 0 0 1-.235.574M66.674 55.85h-.003l-1.64.007a.659.659 0 0 0 .003 1.317h.003l.91-.004a2.1 2.1 0 0 1-.392.86c-.3.37-.715.56-1.237.562h-.01a2.08 2.08 0 0 1-2.08-2.063 2.06 2.06 0 0 1 .601-1.469 2.07 2.07 0 0 1 1.47-.614h.01c.413 0 .813.12 1.156.349a.658.658 0 0 0 .73-1.096 3.4 3.4 0 0 0-1.902-.57 3.38 3.38 0 0 0-2.398 1.003 3.36 3.36 0 0 0-.985 2.403 3.4 3.4 0 0 0 3.398 3.374h.016c.91-.004 1.712-.378 2.256-1.053.489-.607.756-1.442.752-2.35a.66.66 0 0 0-.658-.657M71.422 53.094h-.016a3.38 3.38 0 0 0-2.398 1.003 3.36 3.36 0 0 0-.984 2.402 3.4 3.4 0 0 0 3.397 3.375h.016a3.38 3.38 0 0 0 2.398-1.003c.64-.644.989-1.497.985-2.403a3.4 3.4 0 0 0-3.398-3.374m1.479 4.848a2.07 2.07 0 0 1-1.47.615h-.01a2.08 2.08 0 0 1-2.08-2.064 2.06 2.06 0 0 1 .602-1.468 2.07 2.07 0 0 1 1.469-.614h.01a2.08 2.08 0 0 1 2.08 2.063 2.06 2.06 0 0 1-.601 1.468"/><path fill="#BEDDF3" d="M46.863 39.442c.847 0 .849-1.317 0-1.317-.848 0-.85 1.317 0 1.317"/><path fill="#E28086" d="M55.704 41.399c.847 0 .848-1.317 0-1.317s-.85 1.317 0 1.317M41.597 48.75c.847 0 .849-1.316 0-1.316-.847 0-.849 1.317 0 1.317"/><path fill="#FFC250" d="M69.738 40.016c.847 0 .849-1.317 0-1.317-.848 0-.85 1.317 0 1.317"/><path fill="#BEDDF3" d="M81.064 51.473c.847 0 .849-1.317 0-1.317-.848 0-.849 1.317 0 1.317"/><path fill="#E28086" d="M64.47 71.755c.847 0 .849-1.317 0-1.317-.847 0-.849 1.316 0 1.316"/><path fill="#FFC250" d="M56.964 74.915c.848 0 .85-1.317 0-1.317-.847 0-.849 1.317 0 1.317"/><path fill="#BEDDF3" d="M45.64 68.86c.846 0 .848-1.317 0-1.317s-.85 1.317 0 1.317"/></g><defs><filter id="a" width="120.727" height="120.727" x=".636" y=".545" color-interpolation-filters="sRGB" filterUnits="userSpaceOnUse"><feFlood flood-opacity="0" result="BackgroundImageFix"/><feColorMatrix in="SourceAlpha" result="hardAlpha" values="0 0 0 0 0 0 0 0 0 0 0 0 0 0 0 0 0 0 127 0"/><feOffset dy="2.909"/><feGaussianBlur stdDeviation="10.182"/><feComposite in2="hardAlpha" operator="out"/><feColorMatrix values="0 0 0 0 0.104167 0 0 0 0 0.066116 0 0 0 0 0.030816 0 0 0 0.06 0"/><feBlend in2="BackgroundImageFix" result="effect1_dropShadow_300_1418"/><feBlend in="SourceGraphic" in2="effect1_dropShadow_300_1418" result="shape"/></filter><filter id="b" width="107.636" height="107.637" x="7.182" y="7.092" color-interpolation-filters="sRGB" filterUnits="userSpaceOnUse"><feFlood flood-opacity="0" result="BackgroundImageFix"/><feColorMatrix in="SourceAlpha" result="hardAlpha" values="0 0 0 0 0 0 0 0 0 0 0 0 0 0 0 0 0 0 127 0"/><feOffset dy="2.909"/><feGaussianBlur stdDeviation="10.182"/><feComposite in2="hardAlpha" operator="out"/><feColorMatrix values="0 0 0 0 0.104167 0 0 0 0 0.066116 0 0 0 0 0.030816 0 0 0 0.06 0"/><feBlend in2="BackgroundImageFix" result="effect1_dropShadow_300_1418"/><feBlend in="SourceGraphic" in2="effect1_dropShadow_300_1418" result="shape"/></filter><clipPath id="c"><path fill="#fff" d="M39.182 36.184h43.636V79.82H39.182z"/></clipPath></defs></svg>
